!!!!SEGMENT: pl-wn--mus-iii-90-937_zelenski-wladyslaw--piesni-gabryelli-op-25-laskawa-dziewczyna.krn
!!!cenid: 18xx:3702
!!!COM: Żeleński, Władysław
!!!COM-rismID:
!!!CDT:
!!!CNT:
!!!OTL: Pieśni Gabryelli op. 25/Łaskawa dziewczyna
!!!PDT:
!!!AGN:
!!!SMS-siglum: PL-Wn
!!!SMS-shelfmark: Mus.III.90.937
!!!SMS-shelfwork: W
!!!SMS-variant:
!!!SMS-altvar:
!!!NIFC-rismSourceID:
!!!NIFC-islandoraID:
!!!URL-pdf-islandora:
!!!URL-scan: https://polona.pl/item/piesni-gabryelli-i-e-narcyzy-zmichowskiej-op-25-no-5-laskawa-dziewczyna,NzQyMjEyMDU/0/#info:metadata @EN{Scan on Polona} @PL{Skany w portalu Polona}
!!!ONB-nifc:
!!!AIN: 1 piano 1 vox
!!!key: G
**kern	**fing	**kern	**fing	**dynam	**kern	**text	**dynam
*part2	*	*part2	*	*part2	*part1	*part1	*part1
*staff3	*	*staff2	*	*	*staff1	*staff1	*
*I"Fortepian.	*	*I"Fortepian.	*	*	*I"Śpiew.	*	*
*Ipiano	*	*Ipiano	*	*	*Ivox	*	*
*ICklav	*	*ICklav	*	*	*ICvox	*	*
*IGacmp	*	*IGacmp	*	*	*IGsolo	*	*
*clefF4	*	*clefG2	*	*	*clefG2	*	*
*k[f#]	*	*k[f#]	*	*	*k[f#]	*	*
*G:	*	*G:	*	*	*G:	*	*
*M6/8	*	*M6/8	*	*	*M6/8	*	*
!LO:TX:a:i:t=sciolte	!	!	!	!	!LO:TX:a:B:t=Allegretto.	!	!
8GG'/L	.	4r	.	f	4r	.	.
8D'/	.	.	.	.	.	.	.
8G'/J	.	8r	.	.	8r	.	.
=1	=1	=1	=1	=1	=1	=1	=1
8A'\L	.	(8.eL 8.c/	2 4	p	2.r	.	.
8D'\	.	.	.	.	.	.	.
.	.	16f#L 16d/	1 5	<	.	.	.
8GG'\J	.	16e 16c/	.	.	.	.	.
.	.	16f#JJ 16d/	.	.	.	.	.
8c'\L	.	16gLL 16e/	2 4	.	.	.	.
.	.	16a 16f#/	3 5	.	.	.	.
8D'\	.	16g 16e/	2 4	.	.	.	.
.	.	16f# 16d/	1 3	.	.	.	.
8GG'\J	.	16g 16e/	.	.	.	.	.
.	.	16aJJ 16f#/	.	.	.	.	.
=2	=2	=2	=2	=2	=2	=2	=2
8B'\L	.	16bLL 16g\	.	.	2.r	.	.
.	.	16ccJ 16a\	.	.	.	.	.
8D'\	.	8dd 8b'\)	.	[	.	.	.
8GG'\J	.	8bbJ 8dd'\	.	>	.	.	.
!	!	!LO:TX:a:i:t=leggiero	!	!	!	!	!
8D'\L	.	8ggL 8b'\	.	.	.	.	.
8B'\	.	8dd 8g'\	.	.	.	.	.
8G'\J	.	8bJ 8d'\	.	]	.	.	.
=3	=3	=3	=3	=3	=3	=3	=3
8A'\L	.	(8.eL 8.c/	.	pp <	2.r	.	.
8D'\	.	.	.	.	.	.	.
.	.	16f#L 16d/	.	.	.	.	.
8GG'\J	.	16e 16c/	.	.	.	.	.
.	.	16f#JJ 16d/	.	.	.	.	.
8c'\L	.	16gLL 16e/	.	.	.	.	.
.	.	16a 16f#/	.	.	.	.	.
8D'\	.	16g 16e/	.	.	.	.	.
.	.	16f# 16d/	.	.	.	.	.
8GG'\J	.	16g 16e/	.	.	.	.	.
.	.	16aJJ 16f#/	.	.	.	.	.
!!LO:LB:g=original
=4	=4	=4	=4	=4	=4	=4	=4
(16B\LL	.	16bLL 16g\	.	.	2.r	.	.
16D\J	.	16ccJ 16a\	.	.	.	.	.
8GG'\)	.	8dd 8b'\)	.	[	.	.	.
(8e'\J	.	(8ggJ 8b'\	.	>	.	.	.
!	!	!LO:TX:a:i:t=riten.	!	!	!	!	!
8c'\L	.	8eeL 8g'/	.	.	.	.	.
8A'\	.	8cc 8e'/	.	.	.	.	.
8d'\J)	.	8aJ 8f#'/)	.	]]	.	.	.
=5	=5	=5	=5	=5	=5	=5	=5
*	*	*^	*	*	*	*	*
!	!	!	!	!	!	!LO:TX:a:i:t=a tempo	!	!
8GG\L	.	8r	8ryy	.	.	8r	.	.
!	!	!LO:TX:b:i:t=leggiero	!	!	!	!LO:TX:a:i:t=leggiero	!	!LO:DY:a
(16G\L	.	(16b'/LL	4g\	.	.	16b'\	Je-	p
16A\J	.	16cc/J	.	.	.	16cc'\	-śli	.
8B'\J)	.	8dd'/J)	.	.	.	8dd'\	mnie	.
.	.	(8qb/	.	.	.	8qb/	.	.
8c'\L	.	8aL 8f#'/)	4.ryy	.	.	8a'/	ko-	.
8D'\	.	8g 8e'/	.	.	.	8g'/	-chasz,	.
8c'\J	.	8aJ 8f#'/	.	.	.	8a'/	jam	.
=6	=6	=6	=6	=6	=6	=6	=6	=6
(8G\L	.	(8g/L	4g\	.	.	8b'\	nie	.
8B\)	.	8b/)	.	.	.	8dd'\	chci-	.
8e'\J	.	8gg/J	8g\	.	.	8gg'\	-wa	.
!	!	!	!	!	!	!	!	!LO:HP:a
8c#X'\L	.	(4ff# 4a\	4.ryy	.	>	(4ff#\	ta-	>
8A'\	.	.	.	.	.	.	.	.
8c#'\J	.	8ee 8g\)	.	.	]	8ee\)	-ka,	]
*	*	*v	*v	*	*	*	*	*
!!LO:LB:g=original
=7	=7	=7	=7	=7	=7	=7	=7
!	!	!	!	!	!	!	!LO:DY:a
8d'\	.	8ddL 8f#/	.	.	8dd'\	Daj	p
8r	.	(16a/L	.	.	8a'/	mi	.
.	.	16b/J	.	.	.	.	.
(8A\	.	8ccJ 8e/	.	.	8cc'\	z po-	.
8B\)	.	8bL 8d#X/)	.	.	8b'\	-pio-	.
8r	.	(16g/L	.	.	8g'/	-łów	.
.	.	16a/J	.	.	.	.	.
(8G\	.	8bJ 8dn/	.	.	8b'\	wy-	.
=8	=8	=8	=8	=8	=8	=8	=8
8A\)	.	8aL 8c#X/)	.	.	8a/	-lę-	.
8r	.	(16e/L	.	.	8e/	-głe-	.
.	.	16f#/J	.	.	.	.	.
(8AA/	.	8gJ 8c#/	.	.	8g/	-go	.
8D\L)	.	16f#LL 16d/	.	.	16f#/LL	pta-	.
.	.	16e/J	.	.	16e/JJ	.	.
8F#'\	.	8d'/)	.	.	4d/	-ka	.
[8D\J	.	8d/J	.	.	.	.	.
=9	=9	=9	=9	=9	=9	=9	=9
*	*	*^	*	*	*	*	*
!	!	!LO:TX:b:i:t=espress.	!	!	!	!LO:TX:a:i:t=espress.e legato	!	!
4.D] 4.DD/	.	(8cc/L	16e\LL	.	.	8cc\	Daj	.
.	.	.	16f#\	.	.	.	.	.
.	.	8b/	16d\	.	.	8b\	mi!	.
.	.	.	16f#\	.	.	.	.	.
.	.	8a/J	16c\	.	.	8a/	ach!	.
.	.	.	16f#\JJ	.	.	.	.	.
4.E 4.EE/	.	8g/L	16B\LL	.	.	8g/	daj	.
.	.	.	16e\	.	.	.	.	.
.	.	8f#/	16A\	.	.	8f#/	mi	.
.	.	.	16d#X\	.	<	.	.	.
!	!	!	!	!	!	!	!	!LO:HP:a
.	.	8g/J)	16B\	.	.	8g/	tę	<
.	.	.	16e\JJ	.	.	.	.	.
!!LO:LB:g=original
=10	=10	=10	=10	=10	=10	=10	=10	=10
4.C 4.CC/	.	(8a/L	16f#\LL	.	.	8a/	pię-	.
.	.	.	16A\	.	.	.	.	.
.	.	8g/	16e\	.	.	8g/	-kną	.
.	.	.	16A\	.	.	.	.	.
.	.	8a/J	16f#\	.	.	8a/	pta-	.
.	.	.	16e\JJ	.	[	.	.	[
!	!	!	!	!	!	!	!	!LO:HP:a
4BB 4BBB/	.	4b/	16d#X\LL	.	>	4b\	-szy-	>
.	.	.	16f#\	.	.	.	.	.
.	.	.	16d#\	.	.	.	.	.
.	.	.	16a\	.	.	.	.	.
(<8EE/	.	8b/)	16g\	.	.	8b\	-nę,	]]
.	.	.	16e\JJ	.	]	.	.	.
=11	=11	=11	=11	=11	=11	=11	=11	=11
*^	*	*	*	*	*	*	*	*
!LO:TX:t=P:problem=mixed beam	!	!	!	!	!	!	!	!	!
8AAL 8AAA/)	2ryy	.	8r	2ryy	.	.	8r	.	.
!	!	!	!	!	!	!	!LO:TX:a:i:t=con grazia.	!	!
(16eL 16c\	.	.	(16ccLL 16a\	.	.	.	(16cc\LL	Ja	.
16dJ 16B\	.	.	16ddJ 16b\	.	.	.	16dd\JJ	.	.
8cJ 8A'\)	.	.	8eeJ 8cc'\)	.	.	.	8ee'\)	Cię	.
8r	.	.	8r	.	.	.	16a/	ko-	.
.	.	.	.	.	.	.	16a/	-chać	.
(<16c\LL	4e/	.	(16a/LL	4g\	.	pp	(8cc\	bę-	.
16B\J	.	.	16b/J	.	.	.	.	.	.
8A'<\J)	.	.	8cc'/J)	.	.	.	8g/)	-dę	.
*v	*v	*	*	*	*	*	*	*	*
=12	=12	=12	=12	=12	=12	=12	=12	=12
!	!	!	!	!	!	!	!	!LO:HP:a
8r	.	8r	8ryy	.	.	16f#/	przez	<
.	.	.	.	.	.	16f#/	go-	.
8D'/L	.	(4f#/	16c\LL	.	>	(8.a/L	-dzi-	.
.	.	.	16d\	.	.	.	.	[
!	!	!	!	!	!	!	!	!LO:HP:a
(8DD/J	.	.	16c\	.	.	.	.	>
.	.	.	16d\JJ	.	]	16g/Jk)	.	.
8GG/L)	.	8g 8B/)	4.ryy	.	.	4g/	-nę.	.
8D'/	.	8r	.	.	f	.	.	]
8G'/J	.	8r	.	.	.	8r	.	.
*	*	*v	*v	*	*	*	*	*
!!LO:PB:g=original
=13	=13	=13	=13	=13	=13	=13	=13
8A'\L	.	(8.eL 8.c/	.	p	2.r	.	.
8D'\	.	.	.	<	.	.	.
.	.	16f#L 16d/	.	.	.	.	.
8GG'\J	.	16e 16c/	.	.	.	.	.
.	.	16f#JJ 16d/	.	.	.	.	.
8c'\L	.	16gLL 16e/	.	.	.	.	.
.	.	16a 16f#/	.	.	.	.	.
8D'\	.	16g 16e/	.	.	.	.	.
.	.	16f# 16d/	.	.	.	.	.
8GG'\J	.	16g 16e/	.	.	.	.	.
.	.	16aJJ 16f#/	.	.	.	.	.
=14	=14	=14	=14	=14	=14	=14	=14
8B'\L	.	16bLL 16g\	.	.	2.r	.	.
.	.	16ccJ 16a\	.	.	.	.	.
8D'\	.	8dd 8b'\)	.	[	.	.	.
8GG'\J	.	8bbJ 8dd'\	.	>	.	.	.
!	!	!LO:TX:a:i:t=leggiero	!	!	!	!	!
8D'\L	.	8ggL 8b'\	.	.	.	.	.
8B'\	.	8dd 8g'\	.	.	.	.	.
8G'\J	.	8bJ 8d'\	.	]	.	.	.
=15	=15	=15	=15	=15	=15	=15	=15
8A\L	.	(8.eL 8.c/	.	pp	2.r	.	.
8D\	.	.	.	<	.	.	.
.	.	16f#L 16d/	.	.	.	.	.
8GG\J	.	16e 16c/	.	.	.	.	.
.	.	16f#JJ 16d/	.	.	.	.	.
8c\L	.	16gLL 16e/	.	.	.	.	.
.	.	16a 16f#/	.	.	.	.	.
8D\	.	16g 16e/	.	.	.	.	.
.	.	16f# 16d/	.	.	.	.	.
8GG\J	.	16g 16e/	.	.	.	.	.
.	.	16aJJ 16f#/	.	.	.	.	.
!!LO:LB:g=original
=16	=16	=16	=16	=16	=16	=16	=16
(16B\LL	.	16bLL 16g\	.	.	2.r	.	.
16D\J	.	16ccJ 16a\	.	.	.	.	.
8GG'\)	.	8dd 8b'\)	.	[	.	.	.
(8e'\J	.	(8ggJ 8b'\	.	>	.	.	.
!	!	!LO:TX:a:i:t=riten.	!	!	!	!	!
8c'\L	.	8eeL 8g'>/	.	.	.	.	.
8A'\	.	8cc 8e'>/	.	.	.	.	.
8d'\J)	.	8aJ 8f#'>/)	.	]	.	.	.
=17	=17	=17	=17	=17	=17	=17	=17
*	*	*^	*	*	*	*	*
!	!	!	!	!	!	!LO:TX:a:i:t=a tempo	!	!
8GG\L	.	8r	8ryy	.	p	8r	.	.
!	!	!	!	!	!	!	!	!LO:DY:a
(16G\L	.	(16b/LL	4g\	.	.	16b'\	Je-	p
16A\J	.	16cc/J	.	.	.	16cc'\	-śli	.
8B'\J)	.	8dd/J)	.	.	.	8dd'\	mnie	.
.	.	(8qb/	.	.	.	(8qb/	.	.
8c'\L	.	8aL 8f#'/)	4.ryy	.	.	8a'/)	ko-	.
8D'\	.	8g 8e'/	.	.	.	8g'/	-chasz,	.
8c'\J	.	8aJ 8f#'/	.	.	.	8a'/	jam	.
=18	=18	=18	=18	=18	=18	=18	=18	=18
(8G\L	.	(8g/L	4g\	.	.	8b'\	peł-	.
8B\)	.	8b/)	.	.	.	8dd'\	-na	.
8e'\J	.	8gg/J	8g\	.	.	8gg'\	do-	.
!	!	!	!	!	!	!	!	!LO:HP:a
8c#X'\L	.	(4ff# 4a\	4.ryy	.	>	(4ff#\	-bro-	>
8A'\	.	.	.	.	.	.	.	.
8c#'\J	.	8ee 8g\)	.	.	]	8ee\)	-ci,	]
*	*	*v	*v	*	*	*	*	*
!!LO:LB:g=original
=19	=19	=19	=19	=19	=19	=19	=19
8d'\	.	8ddL 8f#'/	.	.	8dd'\	Chcę	.
8r	.	(16a/L	.	.	8a'/	tyl-	.
.	.	16b/J	.	.	.	.	.
(8A\	.	8ccJ 8e/	.	.	8cc'\	-ko	.
8B\)	.	8bL 8d#X'/)	.	.	8b'\	dos-	.
8r	.	(16g/L	.	.	8g'/	-tać	.
.	.	16a/J	.	.	.	.	.
(8G\	.	8bJ 8dn/	.	.	8b'\	kwia-	.
=20	=20	=20	=20	=20	=20	=20	=20
8A\)	.	8aL 8c#X'/)	.	.	8a'/	-te-	.
8r	.	(16e/L	.	.	8e'/	-czek	.
.	.	16f#/J	.	.	.	.	.
(8AA/	.	8gJ 8c#/	.	.	8g'/	pa-	.
8D\L)	.	16f#LL 16d/	.	.	16f#/LL	-pro-	.
.	.	16e/J	.	.	16e/JJ	.	.
8F#'\	.	8d/)	.	.	4d/	-ci,	.
[8D\J	.	8d/J	.	.	.	.	.
=21	=21	=21	=21	=21	=21	=21	=21
*	*	*^	*	*	*	*	*
!	!	!LO:TX:b:i:t=espress.	!	!	!	!LO:TX:a:i:t=espress. e legato	!	!
4.D] 4.DD/	.	(8cc/L	16e\LL	.	.	8cc\	Daj	.
.	.	.	16f#\	.	.	.	.	.
.	.	8b/	16d\	.	.	8b\	mi!	.
.	.	.	16f#\	.	.	.	.	.
.	.	8a/J	16c\	.	.	8a/	ach!	.
.	.	.	16f#\JJ	.	.	.	.	.
4.E 4.EE/	.	8g/L	16B\LL	.	.	8g/	daj	.
.	.	.	16e\	.	.	.	.	.
.	.	8f#/	16A\	.	.	8f#/	mi	.
!	!	!	!	!	!	!	!	!LO:HP:a
.	.	.	16d#X\	.	<	.	.	<
.	.	8g/J)	16B\	.	.	8g/	ten	.
.	.	.	16e\JJ	.	.	.	.	.
!!LO:LB:g=original
=22	=22	=22	=22	=22	=22	=22	=22	=22
4.C 4.CC/	.	(8a/L	16f#\LL	.	.	8a/	kwia-	.
.	.	.	16A\	.	.	.	.	.
.	.	8g/	16e\	.	.	8g/	-te-	.
.	.	.	16A\	.	.	.	.	.
.	.	8a/J	16f#\	.	.	8a/	-czek	.
.	.	.	16e\JJ	.	[	.	.	[
!	!	!	!	!	!	!	!	!LO:HP:a
4BB 4BBB/	.	4b/	16d#X\LL	.	>	4b\	ma-	>
.	.	.	16f#\	.	.	.	.	.
.	.	.	16d#\	.	.	.	.	.
.	.	.	16a\	.	.	.	.	.
(<8EE/	.	8b/)	16g\	.	.	8b\	-ły!	]
.	.	.	16e\JJ	.	]	.	.	.
=23	=23	=23	=23	=23	=23	=23	=23	=23
*^	*	*	*	*	*	*	*	*
!LO:TX:t=P:problem=mixed beam	!	!	!	!	!	!	!	!	!
8AAL 8AAA/)	2ryy	.	8r	2ryy	.	.	8r	.	.
!	!	!	!	!	!	!	!LO:TX:a:i:t=con grazia	!	!LO:DY:a
(16eL 16c\	.	.	(16ccLL 16a\	.	.	.	(16cc\LL	Ja	p
16dJ 16B\	.	.	16ddJ 16b\	.	.	.	16dd\JJ	.	.
8cJ 8A'\)	.	.	8eeJ 8cc'\)	.	.	.	8ee'\)	cię,	.
8r	.	.	8r	.	.	.	16a/	ko-	.
.	.	.	.	.	.	.	16a/	-chać	.
(<16c\LL	4e-X/	.	(16a/LL	4g\	.	pp	(8cc\	bę-	.
16B\J	.	.	16b/J	.	.	.	.	.	.
8A'\J)	.	.	8cc'/J)	.	.	.	8g/)	-dę	.
*v	*v	*	*	*	*	*	*	*	*
=24	=24	=24	=24	=24	=24	=24	=24	=24
!	!	!	!	!	!	!	!	!LO:DY:a
8r	.	8r	8ryy	.	.	16f#/	przez	<
.	.	.	.	.	.	16f#/	dzień	.
8D/L	.	(4f#/	16c\LL	.	>	(8.a/L	ca-	.
.	.	.	16d\	.	.	.	.	[
!	!	!	!	!	!	!	!	!LO:HP:a
(8DD/J	.	.	16c\	.	.	.	.	>
.	.	.	16d\JJ	.	]	16g/Jk)	.	.
8GG/L)	.	8g 8B/)	4.ryy	.	.	4g/	-ły.	]
8D'/	.	8r	.	.	.	.	.	.
*kcancel	*	*kcancel	*	*	*	*kcancel	*	*
8G'/J	.	8r	.	.	.	8r	.	.
*	*	*v	*v	*	*	*	*	*
!!LO:PB:g=original
=25||	=25||	=25||	=25||	=25||	=25||	=25||	=25||
*k[b-e-a-]	*	*k[b-e-a-]	*	*	*k[b-e-a-]	*	*
*	*	*^	*	*	*	*	*
!	!	!	!	!	!	!LO:TX:a:i:t=con affetto	!	!
!	!	!	!	!	!	!LO:TX:a:B:t=un poco piú lento	!	!
[2.E- [2.EE-/	.	8g/L	16B-\LL	.	p	8g/	Jeś-	.
.	.	.	16e-\	.	.	.	.	.
.	.	8g/	16B-\	.	.	8g/	-li	.
.	.	.	16e-\	.	.	.	.	.
.	.	8f/J	16A-\	.	.	8f/	mnie	.
.	.	.	16e-\JJ	.	.	.	.	.
.	.	8b-/	16d\LL	.	.	8b-\	ko-	.
.	.	.	16e-\	.	.	.	.	.
.	.	4a-/	16c\	.	.	4a-/	-chasz,	.
.	.	.	16e-\	.	.	.	.	.
.	.	.	16c\	.	.	.	.	.
.	.	.	16e-\JJ	.	.	.	.	.
=26	=26	=26	=26	=26	=26	=26	=26	=26
2.E-] 2.EE-/]	.	8g/L	16B-\LL	.	.	16g/	mnie	.
.	.	.	16e-\	.	.	16g/	nie	.
.	.	8g/	16An\	.	.	8g/	wie-	.
.	.	.	16e-\	.	.	.	.	.
.	.	8f/J	16A-X\	.	.	8f/	-le	.
.	.	.	16d\JJ	.	.	.	.	.
.	.	8b-/	16d-X\LL	.	.	8b-\	trze-	.
.	.	.	16e-\	.	.	.	.	.
.	.	4a-/	16c\	.	.	4a-/	-ba,	.
.	.	.	16e-\	.	.	.	.	.
.	.	.	16c-X\	.	.	.	.	.
.	.	.	16e-\JJ	.	.	.	.	.
=27	=27	=27	=27	=27	=27	=27	=27	=27
*^	*	*	*	*	*	*	*	*
!	!	!	!	!	!	!LO:HP:a:t=cresc. e stringendo	!	!	!LO:HP:a:t=cresc. e stringendo
[<4.E- 4.EE-/	4.ryy	1_5	8g/L	16B-\LL	.	<	8g/	Tyl-	<
.	.	.	.	16e-\	.	.	.	.	.
.	.	.	8a-/	16d\	.	.	8a-/	-ko	.
.	.	.	.	16f\	.	.	.	.	.
.	.	.	8b-/J	16d-X\	.	.	8b-\	gwiaz-	.
.	.	.	.	16g\JJ	.	.	.	.	.
8E-/L]	[4.E-\	.	8cc/L	16c\LL	.	.	8cc\	-de-	.
.	.	.	.	16a-\	.	.	.	.	.
8Bn/	.	.	8dd/	16dn\	.	.	8dd\	-czki	.
.	.	.	.	16a-\	.	.	.	.	.
8c/J	.	.	8ee-/J	16e-\	.	.	8ee-\	z błę-	.
.	.	.	.	16a-\JJ	.	.	.	.	.
!!LO:LB:g=original
=28	=28	=28	=28	=28	=28	=28	=28	=28	=28
!	!	!	!LO:TX:a:i:t=espress.	!	!	!	!LO:TX:a:i:t=espress.	!	!
8d/L	2.E-\_	.	8ff/L	16f\LL	.	.	8ff\	-ki-	.
.	.	.	.	16a-\	.	.	.	.	.
8c/	.	.	8ee-/	16e-\	.	.	8ee-\	-tne-	.
.	.	.	.	16a-\	.	.	.	.	.
8A-/J	.	.	8cc/J	16e-\	.	.	8cc\	-go	.
.	.	.	.	16a-\JJ	.	.	.	.	.
!	!	!	!	!	!	!	!	!	!LO:DY:a
[4.B-/	.	.	4b-/	16d\LL	.	>	4b-\	nie-	>
.	.	.	.	16f\	.	.	.	.	.
.	.	.	.	16d\	.	.	.	.	.
.	.	.	.	16f\	.	.	.	.	.
.	.	.	8a-/	16d\	.	.	8a-/	-ba,	]]
.	.	.	.	16f\JJ	.	]	.	.	.
*v	*v	*	*	*	*	*	*	*	*
=29	=29	=29	=29	=29	=29	=29	=29	=29
!LO:TX:b:i:t=marcato il basso	!	!	!	!	!	!LO:TX:a:i:t=a tempo	!	!LO:DY:a
8B-]L 8E-\]	.	8g/L	16g\LL	.	p	8g/	Daj	p
.	.	.	16B-\	.	.	.	.	.
(8E-\	.	8g/	16g\	.	.	8.g/	mi!	.
.	.	.	16B-\	.	.	.	.	.
8D\J	.	8f/J	16f\	.	.	.	.	.
.	.	.	16B-\JJ	.	.	16f/	ach!	.
8D-X/L	.	8b-/	16e-\LL	.	.	8b-\	daj	.
.	.	.	16B-\	.	.	.	.	.
8C/	.	4a-/	16e-\	.	.	4a-/	mi	.
.	.	.	16A-\	.	.	.	.	.
8C-X/J	.	.	16e-\	.	.	.	.	.
.	.	.	16A-\JJ	.	.	.	.	.
=30	=30	=30	=30	=30	=30	=30	=30	=30
8BB-/L	.	8g/L	16e-\LL	.	.	16g/	gwiaz-	.
.	.	.	16B-\	.	.	16g/	-de-	.
8AAn/	.	8g/	16e-\	.	.	8g/	-czkę	.
.	.	.	16B-\	.	.	.	.	.
8AA-X/J	.	8f/J	16d\	.	.	8f/	z o-	.
.	.	.	16B-\JJ	.	.	.	.	.
8GG/L	.	8b-/	16e-\LL	.	.	8b-\	-bło-	.
.	.	.	16B-\	.	.	.	.	.
8FF/	.	4a-/	16e-\	.	.	4a-/	-ku,	.
.	.	.	16c\	.	.	.	.	.
8BB-/J	.	.	16d\	.	.	.	.	.
.	.	.	[16B-\JJ	.	.	.	.	.
*	*	*v	*v	*	*	*	*	*
!!LO:LB:g=original
=31||	=31||	=31||	=31||	=31||	=31||	=31||	=31||
*M9/8	*	*M9/8	*	*	*M9/8	*	*
*	*	*^	*	*	*	*	*
!	!	!	!	!	!	!	!	!LO:HP:a:t=cresc. ed accelerando
4EE-/)	.	8g/L	16B-\LL]	.	.	8g/L	Ja	<
!	!	!	!	!	!LO:HP:b:t=cresc. ed accelerando	!	!	!
.	.	.	16e-\	.	<	.	.	.
.	.	8an/	16c\	.	.	8an/J	.	.
.	.	.	16f#X\	.	.	.	.	.
[8E-^\	.	8b-/J	16d-X\	.	.	8b-\	cię	.
.	.	.	16g\JJ	.	.	.	.	.
8E-/L]	.	8a/L	16c\LL	.	.	8a/L	ko-	.
.	.	.	16g\	.	.	.	.	.
(8Dn/	.	8b-/	16dn\	.	.	8b-/J	.	.
.	.	.	16g\	.	.	.	.	.
8C/J	.	8cc/J	16e-\	.	.	8cc\	-chać	.
.	.	.	16g\JJ	.	.	.	.	.
8D/L	.	8b-/L	16d\LL	.	.	16b-\	bę-	.
.	.	.	16g\	.	.	16b-\	-dę	.
8C/	.	8cc/	16e-\	.	.	8cc\	przez	.
.	.	.	16g\	.	.	.	.	.
8BB-/J)	.	8dd/J	16d\	.	.	8dd\	pół	.
.	.	.	16g\JJ	.	.	.	.	.
*	*	*v	*v	*	*	*	*	*
=32||	=32||	=32||	=32||	=32||	=32||	=32||	=32||
*M6/8	*	*M6/8	*	*	*M6/8	*	*
.	.	16qqc/LL	.	>	.	.	.
.	.	16qqg/JJ	.	.	.	.	.
*ped	*	*	*	*	*	*	*
!	!	!	!	!	!	!	!LO:HP:a
(8AAn\L	.	16ee-/LL	.	.	(2.ee-\	ro-	>
.	.	16cc/	.	.	.	.	.
8E-\	.	16an/	.	.	.	.	.
.	.	16cc/	.	.	.	.	.
8G\J	.	16a/	.	.	.	.	.
.	.	16g/JJ	.	.	.	.	.
8An\L	.	16a/LL	.	.	.	.	.
.	.	16g/	.	.	.	.	.
8c\	.	16e-/	.	.	.	.	.
.	.	16g/	.	.	.	.	.
8G\J	.	16e-/	.	.	.	.	.
*Xped	*	*	*	*	*	*	*
.	.	16c/JJ	.	]	.	.	]]
!!LO:LB:g=original
=33	=33	=33	=33	=33	=33	=33	=33
*ped	*	*	*	*	*	*	*
8An/L)	.	(16f#X/LL	.	pp	[2.an/)	-ku.	.
.	.	16d/	.	.	.	.	.
!LO:TX:a:i:t=riten.sempre	!	!	!	!	!	!	!
(<8DD/	.	16c/	.	.	.	.	.
.	.	16an/	.	.	.	.	.
8AAn/J	.	16f#/	.	.	.	.	.
.	.	16d/JJ	.	.	.	.	.
[4.D\)	.	16cc/LL	.	.	.	.	.
.	.	16a/	.	.	.	.	.
.	.	16f#/	.	.	.	.	.
.	.	16a/	.	.	.	.	.
.	.	16f#/	.	.	.	.	.
.	.	16d/JJ	.	.	.	.	.
=34	=34	=34	=34	=34	=34	=34	=34
4.D\_	.	16f#X/LL	.	.	4.a/_	.	.
.	.	16d/	.	.	.	.	.
.	.	16c/	.	.	.	.	.
.	.	16d/	.	.	.	.	.
.	.	16c/	.	.	.	.	.
.	.	16An/JJ	.	.	.	.	.
!LO:TX:t=P:problem=fermata pomiędzy 8. a 16	!	!	!	!	!	!	!
8.D\];	.	16c/LL	.	.	8a/]	.	.
.	.	16A/	.	.	.	.	.
.	.	16F#X';/JJ)	.	.	16r;	.	.
*Xped	*	*	*	*	*	*	*
16r	.	16r	.	.	16an/	A	.
8r	.	8r	.	.	16g/	je-	.
.	.	.	.	.	16a/	-śli	.
=35||	=35||	=35||	=35||	=35||	=35||	=35||	=35||
*k[f#]	*	*k[f#]	*	*	*k[f#]	*	*
*	*	*^	*	*	*	*	*
!	!	!LO:TX:b:i:t=a tempo	!	!	!	!LO:TX:a:i:t=a tempo	!	!
8GG\L	.	8r	8ryy	.	.	(8.b\L	nie	.
(16G\L	.	(16b/LL	4g\	.	.	.	.	.
16A\J	.	16cc/J	.	.	.	16cc\Jk)	.	.
8B'\J)	.	8dd'/J)	.	.	.	8dd'\	masz	.
.	.	8qb/	.	.	.	8qb/	.	.
8c'\L	.	(8aL 8f#/	4.ryy	.	.	(8a/L	gwiaz-	.
8D'\	.	8g 8e/)	.	.	.	8g/J)	.	.
8c'\J	.	8aJ 8f#/	.	.	.	8a/	-dy,	.
!!LO:PB:g=original
=36	=36	=36	=36	=36	=36	=36	=36	=36
(8G\L	.	(8b/L	4g\	.	.	(8b\L	kwia-	.
8B\)	.	8dd/)	.	.	.	8dd\J)	.	.
8e'\J	.	8gg'/J	8g\	.	.	8gg'\	-ta,	.
!	!	!	!	!	!	!	!	!LO:HP:a
8c#X'\L	.	(4ff# 4a\	4.ryy	.	>	(4ff#\	pta-	>
8A'\	.	.	.	.	.	.	.	.
8c#'\J	.	8ee 8g\)	.	.	]	8ee\)	-ka,	]
*	*	*v	*v	*	*	*	*	*
=37	=37	=37	=37	=37	=37	=37	=37
8d\	.	8ddL 8f#'/	.	.	8dd'\	To	.
8r	.	(16a/L	.	.	8a'/	po-	.
.	.	16b/J	.	.	.	.	.
(8A\	.	8ccJ 8e/	.	.	8cc'\	-proś	.
8B\)	.	8bL 8d#X'/)	.	.	8b'\	Bo-	.
8r	.	(16g/L	.	.	8g'/	-ga,	.
.	.	16a/J	.	.	.	.	.
(8G\	.	8bJ 8dn/	.	.	8b'\	niech	.
=38	=38	=38	=38	=38	=38	=38	=38
8A'\)	.	8aL 8c#X'/)	.	.	8a'/	nie	.
8r	.	(16e/L	.	.	8e'/	bę-	.
.	.	16f#/J	.	.	.	.	.
(8AA/	.	8gJ 8c#/	.	.	8g'/	-dę	.
8D\L)	.	16f#LL 16d/	.	.	16f#/LL	ta-	.
.	.	16e/J	.	.	16e/JJ	.	.
8F#'\	.	8d'/)	.	.	4d/	-ka	.
(8D\J	.	8d/J	.	.	.	.	.
!!LO:LB:g=original
=39	=39	=39	=39	=39	=39	=39	=39
*	*	*^	*	*	*	*	*
!LO:TX:t=P:problem=brak zakończenia łuku	!	!	!	!	!	!	!	!
!LO:TX:a:i:t=espress.	!	!	!	!	!	!LO:TX:a:i:t=espress. più legato	!	!
(4.D 4.DD/)	.	(8cc/L	16e\LL	.	.	8cc\L	Nie-	.
.	.	.	16f#\	.	.	.	.	.
.	.	8b/	16d\	.	.	8b\J	.	.
.	.	.	16f#\	.	.	.	.	.
.	.	8a/J	16c\	.	.	8a/	-chaj	.
.	.	.	16f#\JJ	.	.	.	.	.
4.E 4.EE/)	.	8g/L	16B\LL	.	.	8g/L	stwo-	.
.	.	.	16e\	.	.	.	.	.
.	.	8f#/	16A\	.	.	8f#/J	.	.
.	.	.	16d#X\	.	<	.	.	.
.	.	8g/J)	16B\	.	.	8g/	-rzy	.
.	.	.	16e\JJ	.	.	.	.	.
=40	=40	=40	=40	=40	=40	=40	=40	=40
!	!	!	!	!	!	!	!	!LO:HP:a
(4.C 4.CC/	.	(8a/L	16f#\LL	.	.	16a/	in-	<
.	.	.	16A\	.	.	16a/	-ne	.
.	.	8g/	16e\	.	.	8g/	ser-	.
.	.	.	16A\	.	.	.	.	.
.	.	8a/J	16f#\	.	.	8a/	-ce	.
.	.	.	16e\JJ	.	[	.	.	.
!	!	!	!	!	!	!	!	!LO:HP:a
4BB 4BBB/)	.	4b/	16d#X\LL	.	>	4b\	we	[ >
.	.	.	16f#\	.	.	.	.	.
.	.	.	16d#\	.	.	.	.	.
.	.	.	16a\	.	.	.	.	.
(<8EE/	.	8b/)	16g\	.	.	8b\	mnie	]]
.	.	.	16e\JJ	.	]	.	.	.
=41	=41	=41	=41	=41	=41	=41	=41	=41
*^	*	*	*	*	*	*	*	*
!LO:TX:t=P:problem=mixed beam	!	!	!	!	!	!	!	!	!
8AAL 8AAA/)	2ryy	.	8r	2ryy	.	.	8r	.	.
!	!	!	!	!	!	!LO:DY:rj	!	!	!
(16eL 16c\	.	.	(16ccLL 16a\	.	.	pp	16cc\LL	Niech	.
16dJ 16B\	.	.	16ddJ 16b\	.	.	.	16dd\JJ	.	.
8cJ 8A'\)	.	.	8eeJ 8cc'\)	.	.	.	8ee\	cię	.
!	!	!	!LO:TX:b:i:t=più riten.	!	!	!	!	!	!LO:HP:a
8r	.	.	8r	.	.	.	16a/	ko-	<
.	.	.	.	.	.	.	16a/	-cham	.
4e-X/	(16c\LL	.	(16a/LL	4g\	.	>	(8cc\	sta-	.
.	16B\J	.	16b/J	.	.	.	.	.	.
.	8A'\J)	.	8cc'/J)	.	.	]]	8g/)	-le	.
*v	*v	*	*	*	*	*	*	*	*
!!LO:LB:g=original
=42	=42	=42	=42	=42	=42	=42	=42	=42
8r	.	8r	8ryy	.	.	16f#/	i	.
.	.	.	.	.	.	16f#/	wza-	[
!	!	!	!	!	!	!	!	!LO:HP:a
8D/L	.	(4f#/	16c\LL	.	>	8.a/L	-jem-	>
.	.	.	16d\	.	.	.	.	.
(8DD/J	.	.	16c\	.	.	.	.	.
.	.	.	16d\JJ	.	]	16g/Jk	.	.
8GG/L)	.	8g 8B/)	4.ryy	.	.	8g/	-nie.	]
!	!	!LO:TX:a:i:t=a tempo	!	!	!	!	!	!
8D'/	.	8r	.	.	f	8r	.	.
8G'/J	.	8r	.	.	.	8r	.	.
*	*	*v	*v	*	*	*	*	*
=43	=43	=43	=43	=43	=43	=43	=43
8A'\L	.	(8.eL 8.c/	.	p <	2.r	.	.
8D'\	.	.	.	.	.	.	.
.	.	16f#L 16d/	.	.	.	.	.
8GG'\J	.	16e 16c/	.	.	.	.	.
.	.	16f#JJ 16d/	.	.	.	.	.
8c'\L	.	16gLL 16e/	.	.	.	.	.
.	.	16a 16f#/	.	.	.	.	.
8D'\	.	16g 16e/	.	.	.	.	.
.	.	16f# 16d/	.	.	.	.	.
8GG'\J	.	16g 16e/	.	.	.	.	.
.	.	16aJJ 16f#/	.	.	.	.	.
=44	=44	=44	=44	=44	=44	=44	=44
8B'\L	.	16bLL 16g\	.	.	2.r	.	.
.	.	16ccJ 16a\	.	.	.	.	.
8D'\	.	8dd 8b\)	.	[	.	.	.
!	!	!LO:TX:a:i:t=leggiero	!	!	!	!	!
8GG'\J	.	8bbJ 8dd'\	.	>	.	.	.
*ped	*	*	*	*	*	*	*
8D'\L	.	8ggL 8b'\	.	.	.	.	.
8B'\	.	8dd 8g'\	.	.	.	.	.
*Xped	*	*	*	*	*	*	*
8G'\J	.	8bJ 8d'\	.	]	.	.	.
!!LO:LB:g=original
=45	=45	=45	=45	=45	=45	=45	=45
8A'\L	.	(8.eL 8.c/	.	pp	2.r	.	.
8D'\	.	.	.	<	.	.	.
.	.	16f#L 16d/	.	.	.	.	.
8GG'\J	.	16e 16c/	.	.	.	.	.
.	.	16f#JJ 16d/	.	.	.	.	.
8c'\L	.	16gLL 16e/	.	.	.	.	.
.	.	16a 16f#/	.	.	.	.	.
8D'\	.	16g 16e/	.	.	.	.	.
.	.	16f# 16d/	.	.	.	.	.
8GG'\J	.	16g 16e/	.	.	.	.	.
.	.	16aJJ 16f#/	.	.	.	.	.
=46	=46	=46	=46	=46	=46	=46	=46
(16B\LL	.	16bLL 16g\	.	.	2.r	.	.
16D\J	.	16ccJ 16a\	.	.	.	.	.
8GG'\)	.	8dd 8b'\)	.	[	.	.	.
(8e'\J	.	(8ggJ 8b'\	.	.	.	.	.
!LO:TX:a:i:t=legg.	!	!LO:TX:a:i:t=riten.	!	!	!	!	!
8c'\L	.	8eeL 8g'/	.	.	.	.	.
8A'\	.	8cc 8e'/	.	.	.	.	.
8d'\J)	.	8aJ 8f#'/)	.	.	.	.	.
=47	=47	=47	=47	=47	=47	=47	=47
4.G 4.D 4.GG;</	.	4.b 4.g 4.d 4.B;/	.	ppp	4r;	.	.
.	.	.	.	.	8r	.	.
==	==	==	==	==	==	==	==
*-	*-	*-	*-	*-	*-	*-	*-
!!!system-decoration: s1{(s2,s3)}
!!!RDF**kern: > = above
!!!RDF**kern: < = below
!!!ENC: Filip Voros
!!!END: 2022-03-24
!!!ENC: Marta Lawrence
!!!END: 2022-03-27
